src/cards/diamonds_7.svg

<svg version="1.1" id="Layer_1" xmlns="http://www.w3.org/2000/svg" xmlns:xlink="http://www.w3.org/1999/xlink" x="0px" y="0px"
	 width="100%" viewBox="0 0 340 500" enable-background="new 0 0 340 500" xml:space="preserve">
<path fill="transparent" opacity="1.000000" stroke="none" 
	d="
M1.000000,187.000000 
	C1.000000,124.685066 1.000000,62.870129 1.000000,1.027597 
	C114.281204,1.027597 227.562408,1.027597 340.921814,1.027597 
	C340.921814,167.564926 340.921814,334.129883 340.921814,500.847412 
	C227.666809,500.847412 114.333435,500.847412 1.000000,500.847412 
	C1.000000,396.437653 1.000000,291.968811 1.000000,187.000000 
M94.292610,53.734417 
	C85.985413,65.041435 75.622269,74.227814 63.863655,82.385468 
	C78.283379,91.666565 89.568657,103.251595 99.010902,117.464470 
	C108.447731,103.074570 119.945938,91.585037 134.321838,82.216072 
	C119.727104,72.944626 108.512665,61.110722 98.947838,47.220341 
	C97.233116,49.641945 95.986183,51.402916 94.292610,53.734417 
M232.325180,108.212044 
	C234.483612,111.098953 236.642029,113.985863 239.146423,117.335495 
	C248.390564,103.010124 260.016510,91.646935 274.272400,82.192451 
	C259.729401,72.928398 248.508163,61.109024 238.888733,47.116245 
	C229.409378,61.697262 217.741943,72.944443 205.155426,81.429520 
	C214.153137,90.236496 223.036804,98.931862 232.325180,108.212044 
M243.257156,273.827118 
	C251.723114,262.330048 262.080109,252.797928 274.223083,244.695145 
	C259.818329,235.398163 248.423126,223.728485 238.963150,209.569016 
	C229.488708,223.976929 218.025421,235.386398 203.808456,244.720566 
	C217.999146,254.098892 229.527542,265.642639 238.953079,279.783112 
	C240.543152,277.606659 241.703781,276.018005 243.257156,273.827118 
M87.321098,224.797226 
	C79.831856,231.567200 72.342621,238.337158 64.673164,245.270020 
	C77.877457,254.058548 89.495583,265.485046 98.982857,279.961670 
	C108.493080,265.511963 120.093719,254.071869 134.201477,244.698212 
	C119.880272,235.395157 108.441635,223.823059 99.199364,209.853317 
	C95.163834,214.954025 91.478607,219.611969 87.321098,224.797226 
M73.585373,405.114655 
	C70.449905,407.495972 67.314445,409.877319 63.928635,412.448792 
	C78.263344,421.597595 89.567520,433.316223 99.043396,447.414154 
	C108.495468,433.027985 119.928406,421.606354 134.292694,412.241821 
	C119.928810,403.064941 108.548698,391.237244 99.790077,378.433105 
	C91.014061,387.408325 82.576256,396.037659 73.585373,405.114655 
M241.443115,443.917114 
	C250.122986,431.312836 261.011078,420.969727 274.263794,412.239258 
	C260.036407,403.039459 248.569931,391.457367 238.953445,377.025330 
	C229.552628,391.523926 217.882339,402.892303 203.796814,412.299957 
	C218.151077,421.613434 229.580902,433.199982 238.952896,447.363495 
	C239.903275,446.041718 240.464828,445.260681 241.443115,443.917114 
M197.495361,160.035065 
	C186.271378,151.795319 177.076141,141.610535 168.946854,129.539429 
	C159.611771,143.930405 148.038788,155.358810 133.727386,164.771652 
	C148.229126,174.081100 159.510361,185.852097 169.118942,199.891357 
	C178.557007,185.301407 190.218735,174.044510 204.104996,164.757996 
	C201.836655,163.140076 199.951797,161.795700 197.495361,160.035065 
M13.000652,88.460388 
	C18.508842,93.610985 24.017035,98.761589 27.753813,102.255783 
	C33.289162,96.948257 38.986889,91.485039 42.960270,87.675194 
	C38.580219,83.229454 32.943016,77.507706 27.788401,72.275787 
	C23.864071,75.932617 18.418415,80.975060 13.036139,86.084282 
	C12.613284,86.485687 12.632057,87.352325 13.000652,88.460388 
M310.970764,422.228973 
	C315.842621,417.120544 320.714447,412.012146 323.947235,408.622375 
	C318.551025,403.161224 312.906281,397.448578 308.989075,393.484192 
	C304.838409,397.666168 299.257935,403.288696 294.047394,408.538544 
	C297.574554,412.302734 302.602295,417.746643 307.779449,423.044556 
	C308.193024,423.467804 309.638062,422.883148 310.970764,422.228973 
M310.050354,476.962433 
	C306.822998,476.962433 303.595612,476.962433 299.553009,476.962433 
	C307.052551,468.614655 312.091675,459.985901 314.528595,449.966095 
	C316.391083,442.307983 315.914948,441.744690 307.942200,442.229736 
	C307.667236,442.246429 307.410065,442.555420 306.878693,442.901276 
	C306.004669,455.075775 301.759796,466.228607 294.606812,476.353851 
	C292.628448,479.154266 294.409943,482.500732 297.803131,482.556427 
	C305.749146,482.686829 313.698792,482.598145 322.205780,482.598145 
	C322.491089,477.661682 322.754486,473.104156 323.010345,468.677399 
	C319.163391,467.361847 317.691742,469.080688 317.179108,471.894501 
	C316.528412,475.466003 314.389404,476.958771 310.050354,476.962433 
M30.587683,52.014671 
	C32.425491,40.466812 35.501549,29.409096 42.256882,19.576231 
	C43.534904,17.715973 43.410881,14.892484 44.005791,12.185876 
	C33.731209,12.185876 24.959019,12.185876 15.761605,12.185876 
	C15.490905,16.783249 15.230839,21.200018 14.978232,25.490093 
	C18.507856,27.099630 19.725899,25.595949 20.873705,22.877178 
	C21.663935,21.005388 23.295944,18.418600 24.879143,18.160614 
	C28.978472,17.492615 33.258995,17.936544 38.049942,17.936544 
	C29.316242,28.003754 23.370808,38.672615 22.448380,52.188580 
	C25.540176,52.188580 27.679272,52.188580 30.587683,52.014671 
z"/>
<path fill="currentColor" opacity="1.000000" stroke="none" 
	d="
M94.515930,53.449150 
	C95.986183,51.402916 97.233116,49.641945 98.947838,47.220341 
	C108.512665,61.110722 119.727104,72.944626 134.321838,82.216072 
	C119.945938,91.585037 108.447731,103.074570 99.010902,117.464470 
	C89.568657,103.251595 78.283379,91.666565 63.863655,82.385468 
	C75.622269,74.227814 85.985413,65.041435 94.515930,53.449150 
z"/>
<path fill="currentColor" opacity="1.000000" stroke="none" 
	d="
M232.122833,107.919632 
	C223.036804,98.931862 214.153137,90.236496 205.155426,81.429520 
	C217.741943,72.944443 229.409378,61.697262 238.888733,47.116245 
	C248.508163,61.109024 259.729401,72.928398 274.272400,82.192451 
	C260.016510,91.646935 248.390564,103.010124 239.146423,117.335495 
	C236.642029,113.985863 234.483612,111.098953 232.122833,107.919632 
z"/>
<path fill="currentColor" opacity="1.000000" stroke="none" 
	d="
M243.060791,274.128235 
	C241.703781,276.018005 240.543152,277.606659 238.953079,279.783112 
	C229.527542,265.642639 217.999146,254.098892 203.808456,244.720566 
	C218.025421,235.386398 229.488708,223.976929 238.963150,209.569016 
	C248.423126,223.728485 259.818329,235.398163 274.223083,244.695145 
	C262.080109,252.797928 251.723114,262.330048 243.060791,274.128235 
z"/>
<path fill="currentColor" opacity="1.000000" stroke="none" 
	d="
M87.557236,224.533569 
	C91.478607,219.611969 95.163834,214.954025 99.199364,209.853317 
	C108.441635,223.823059 119.880272,235.395157 134.201477,244.698212 
	C120.093719,254.071869 108.493080,265.511963 98.982857,279.961670 
	C89.495583,265.485046 77.877457,254.058548 64.673164,245.270020 
	C72.342621,238.337158 79.831856,231.567200 87.557236,224.533569 
z"/>
<path fill="currentColor" opacity="1.000000" stroke="none" 
	d="
M73.861908,404.890808 
	C82.576256,396.037659 91.014061,387.408325 99.790077,378.433105 
	C108.548698,391.237244 119.928810,403.064941 134.292694,412.241821 
	C119.928406,421.606354 108.495468,433.027985 99.043396,447.414154 
	C89.567520,433.316223 78.263344,421.597595 63.928635,412.448792 
	C67.314445,409.877319 70.449905,407.495972 73.861908,404.890808 
z"/>
<path fill="currentColor" opacity="1.000000" stroke="none" 
	d="
M241.234756,444.198395 
	C240.464828,445.260681 239.903275,446.041718 238.952896,447.363495 
	C229.580902,433.199982 218.151077,421.613434 203.796814,412.299957 
	C217.882339,402.892303 229.552628,391.523926 238.953445,377.025330 
	C248.569931,391.457367 260.036407,403.039459 274.263794,412.239258 
	C261.011078,420.969727 250.122986,431.312836 241.234756,444.198395 
z"/>
<path fill="currentColor" opacity="1.000000" stroke="none" 
	d="
M197.781158,160.243195 
	C199.951797,161.795700 201.836655,163.140076 204.104996,164.757996 
	C190.218735,174.044510 178.557007,185.301407 169.118942,199.891357 
	C159.510361,185.852097 148.229126,174.081100 133.727386,164.771652 
	C148.038788,155.358810 159.611771,143.930405 168.946854,129.539429 
	C177.076141,141.610535 186.271378,151.795319 197.781158,160.243195 
z"/>
<path fill="currentColor" opacity="1.000000" stroke="none" 
	d="
M12.723117,88.231567 
	C12.632057,87.352325 12.613284,86.485687 13.036139,86.084282 
	C18.418415,80.975060 23.864071,75.932617 27.788401,72.275787 
	C32.943016,77.507706 38.580219,83.229454 42.960270,87.675194 
	C38.986889,91.485039 33.289162,96.948257 27.753813,102.255783 
	C24.017035,98.761589 18.508842,93.610985 12.723117,88.231567 
z"/>
<path fill="currentColor" opacity="1.000000" stroke="none" 
	d="
M310.787262,422.497925 
	C309.638062,422.883148 308.193024,423.467804 307.779449,423.044556 
	C302.602295,417.746643 297.574554,412.302734 294.047394,408.538544 
	C299.257935,403.288696 304.838409,397.666168 308.989075,393.484192 
	C312.906281,397.448578 318.551025,403.161224 323.947235,408.622375 
	C320.714447,412.012146 315.842621,417.120544 310.787262,422.497925 
z"/>
<path fill="currentColor" opacity="1.000000" stroke="none" 
	d="
M310.490662,476.945770 
	C314.389404,476.958771 316.528412,475.466003 317.179108,471.894501 
	C317.691742,469.080688 319.163391,467.361847 323.010345,468.677399 
	C322.754486,473.104156 322.491089,477.661682 322.205780,482.598145 
	C313.698792,482.598145 305.749146,482.686829 297.803131,482.556427 
	C294.409943,482.500732 292.628448,479.154266 294.606812,476.353851 
	C301.759796,466.228607 306.004669,455.075775 306.878693,442.901276 
	C307.410065,442.555420 307.667236,442.246429 307.942200,442.229736 
	C315.914948,441.744690 316.391083,442.307983 314.528595,449.966095 
	C312.091675,459.985901 307.052551,468.614655 299.553009,476.962433 
	C303.595612,476.962433 306.822998,476.962433 310.490662,476.945770 
z"/>
<path fill="currentColor" opacity="1.000000" stroke="none" 
	d="
M30.203024,52.101624 
	C27.679272,52.188580 25.540176,52.188580 22.448380,52.188580 
	C23.370808,38.672615 29.316242,28.003754 38.049942,17.936544 
	C33.258995,17.936544 28.978472,17.492615 24.879143,18.160614 
	C23.295944,18.418600 21.663935,21.005388 20.873705,22.877178 
	C19.725899,25.595949 18.507856,27.099630 14.978232,25.490093 
	C15.230839,21.200018 15.490905,16.783249 15.761605,12.185876 
	C24.959019,12.185876 33.731209,12.185876 44.005791,12.185876 
	C43.410881,14.892484 43.534904,17.715973 42.256882,19.576231 
	C35.501549,29.409096 32.425491,40.466812 30.203024,52.101624 
z"/>
</svg>

<svg xmlns="http://www.w3.org/2000/svg" viewBox="0 0 340 500" xml:space="preserve"><path fill="transparent" d="M1 187V1.028h339.922v499.82H1V187M94.293 53.734c-8.308 11.307-18.67 20.494-30.43 28.651 14.42 9.282 25.706 20.867 35.148 35.08 9.437-14.39 20.935-25.88 35.31-35.249-14.594-9.271-25.808-21.105-35.373-34.996a607.33 607.33 0 0 1-4.655 6.514m138.032 54.478 6.821 9.123c9.245-14.325 20.87-25.688 35.126-35.143-14.543-9.264-25.764-21.083-35.383-35.076-9.48 14.581-21.147 25.828-33.734 34.314 8.998 8.806 17.882 17.502 27.17 26.782m10.932 165.615c8.466-11.497 18.823-21.03 30.966-29.132-14.405-9.297-25.8-20.967-35.26-35.126-9.474 14.408-20.938 25.817-35.155 35.152 14.191 9.378 25.72 20.922 35.145 35.062a471.22 471.22 0 0 0 4.304-5.956m-155.936-49.03L64.673 245.27c13.204 8.789 24.823 20.215 34.31 34.692 9.51-14.45 21.11-25.89 35.218-35.264-14.32-9.303-25.76-20.875-35.002-34.845-4.035 5.101-7.72 9.759-11.878 14.944M73.585 405.115l-9.656 7.334c14.334 9.149 25.639 20.867 35.114 34.965 9.452-14.386 20.885-25.808 35.25-35.172-14.364-9.177-25.744-21.005-34.503-33.809-8.776 8.975-17.214 17.605-26.205 26.682m167.858 38.802c8.68-12.604 19.568-22.947 32.82-31.678-14.227-9.2-25.693-20.782-35.31-35.214-9.4 14.499-21.07 25.867-35.156 35.275 14.354 9.313 25.784 20.9 35.156 35.063.95-1.321 1.512-2.102 2.49-3.446m-43.948-283.882c-11.224-8.24-20.419-18.424-28.548-30.496-9.335 14.391-20.908 25.82-35.22 35.233 14.502 9.31 25.783 21.08 35.392 35.12 9.438-14.59 21.1-25.847 34.986-35.134-2.268-1.618-4.153-2.962-6.61-4.723M13.001 88.46l14.753 13.796 15.206-14.58-15.172-15.4c-3.924 3.657-9.37 8.7-14.752 13.808-.423.402-.404 1.268-.035 2.376M310.97 422.23l12.976-13.607-14.958-15.138-14.942 15.055c3.528 3.764 8.555 9.208 13.732 14.506.414.423 1.86-.162 3.192-.816m-.92 54.733h-10.498c7.5-8.347 12.539-16.976 14.976-26.996 1.862-7.658 1.386-8.221-6.587-7.736-.275.016-.532.325-1.063.671-.874 12.175-5.12 23.328-12.272 33.453-1.979 2.8-.197 6.147 3.196 6.202 7.946.13 15.896.042 24.403.042l.804-13.92c-3.847-1.316-5.318.403-5.83 3.217-.652 3.571-2.79 5.064-7.13 5.067M30.588 52.015c1.837-11.548 4.914-22.606 11.669-32.439 1.278-1.86 1.154-4.684 1.749-7.39H15.762l-.784 13.304c3.53 1.61 4.748.106 5.896-2.613.79-1.872 2.422-4.458 4.005-4.716 4.1-.668 8.38-.224 13.17-.224-8.733 10.067-14.678 20.736-15.6 34.252 3.091 0 5.23 0 8.139-.174z"/><path fill="currentColor" d="M94.516 53.45a1055.2 1055.2 0 0 0 4.432-6.23c9.565 13.89 20.78 25.725 35.374 34.996-14.376 9.369-25.874 20.859-35.311 35.248-9.442-14.212-20.728-25.797-35.147-35.079 11.758-8.157 22.121-17.344 30.652-28.936zM232.123 107.92c-9.086-8.988-17.97-17.684-26.968-26.49 12.587-8.486 24.254-19.733 33.734-34.314 9.62 13.993 20.84 25.812 35.383 35.076-14.255 9.455-25.881 20.818-35.126 35.143-2.504-3.35-4.662-6.236-7.023-9.415zM243.06 274.128a809.756 809.756 0 0 1-4.107 5.655c-9.425-14.14-20.954-25.684-35.145-35.062 14.217-9.335 25.68-20.744 35.155-35.152 9.46 14.16 20.855 25.83 35.26 35.126-12.143 8.103-22.5 17.635-31.162 29.433zM87.557 224.534c3.922-4.922 7.607-9.58 11.642-14.68 9.243 13.97 20.681 25.541 35.002 34.844-14.107 9.374-25.708 20.814-35.218 35.264-9.487-14.477-21.106-25.903-34.31-34.692a8563.664 8563.664 0 0 0 22.884-20.736zM73.862 404.89c8.714-8.852 17.152-17.482 25.928-26.457 8.759 12.804 20.139 24.632 34.503 33.809-14.365 9.364-25.798 20.786-35.25 35.172-9.475-14.098-20.78-25.816-35.114-34.965 3.385-2.572 6.52-4.953 9.933-7.558zM241.235 444.198c-.77 1.063-1.332 1.844-2.282 3.165-9.372-14.163-20.802-25.75-35.156-35.063 14.085-9.408 25.756-20.776 35.156-35.275 9.617 14.432 21.083 26.014 35.31 35.214-13.252 8.73-24.14 19.074-33.028 31.96zM197.781 160.243c2.17 1.553 4.056 2.897 6.324 4.515-13.886 9.287-25.548 20.543-34.986 35.133-9.609-14.039-20.89-25.81-35.392-35.12 14.312-9.412 25.885-20.84 35.22-35.232 8.13 12.072 17.324 22.256 28.834 30.704zM12.723 88.232c-.09-.88-.11-1.746.313-2.148 5.382-5.109 10.828-10.151 14.752-13.808l15.172 15.4-15.206 14.58a7189.218 7189.218 0 0 0-15.03-14.024zM310.787 422.498c-1.149.385-2.594.97-3.008.547-5.177-5.298-10.204-10.742-13.732-14.506l14.942-15.055 14.958 15.138c-3.233 3.39-8.104 8.499-13.16 13.876zM310.49 476.946c3.9.013 6.038-1.48 6.69-5.051.512-2.814 1.983-4.533 5.83-3.218l-.804 13.921c-8.507 0-16.457.089-24.403-.042-3.393-.055-5.175-3.402-3.196-6.202 7.153-10.125 11.398-21.278 12.272-33.453.531-.346.788-.655 1.063-.671 7.973-.485 8.45.078 6.587 7.736-2.437 10.02-7.476 18.649-14.976 26.996 4.043 0 7.27 0 10.938-.016zM30.203 52.102c-2.524.087-4.663.087-7.755.087.923-13.516 6.868-24.185 15.602-34.252-4.791 0-9.072-.444-13.17.224-1.584.258-3.216 2.844-4.006 4.716-1.148 2.719-2.366 4.223-5.896 2.613l.784-13.304h28.244c-.595 2.706-.471 5.53-1.75 7.39-6.754 9.833-9.83 20.89-12.053 32.526z"/></svg>
